assets/trix/images/numbers.svg

<?xml version="1.0" encoding="utf-8"?>
<!-- Generated by IcoMoon.io -->
<!DOCTYPE svg PUBLIC "-//W3C//DTD SVG 1.1//EN" "http://www.w3.org/Graphics/SVG/1.1/DTD/svg11.dtd">
<svg version="1.1" xmlns="http://www.w3.org/2000/svg" xmlns:xlink="http://www.w3.org/1999/xlink" width="24" height="24" viewBox="0 0 24 24">
<path d="M2 17h2v0.5h-1v1h1v0.5h-2v1h3v-4h-3v1zM3 8h1v-4h-2v1h1v3zM2 11h1.8l-1.8 2.1v0.9h3v-1h-1.8l1.8-2.1v-0.9h-3v1zM7 5v2h14v-2h-14zM7 19h14v-2h-14v2zM7 13h14v-2h-14v2z" fill="#000"></path>
</svg>

<svg xmlns="http://www.w3.org/2000/svg" width="24" height="24" viewBox="0 0 24 24"><path d="M2 17h2v.5H3v1h1v.5H2v1h3v-4H2v1zm1-9h1V4H2v1h1v3zm-1 3h1.8L2 13v1h3v-1H3.2L5 11v-1H2v1zm5-6v2h14V5H7zm0 14h14v-2H7v2zm0-6h14v-2H7v2z"/></svg>
